!!!COM: Beethoven
!!!OTL: Six Variations on an Original Theme
!!!Variation: Variation 6 coda
**function	**harm	**kern	**kern
*M3/4	*M3/4	*staff1	*staff2
*D:	*D:	*clefG2	*clefF4
*tb16	*	*k[f#c#]	*k[f#c#]
*	*	*M3/4	*M3/4
*	*	*D:	*D:
4T	4i vi/bIII	4r	8DD'L 8D'
.	.	.	8EE'J 8E'
=	=	=113	=113
2T	2i vi/bIII	8d'L 8dd'	8FF'L 8F'
.	.	8e'J 8ee'	8DD'J 8D'
.	.	8f'L 8ff'	4r
.	.	8d'J 8dd'	.
4T	4iv ii/bIII	4r	8GG'L 8G'
.	.	.	8AA'J 8A'
=	=	=114	=114
2T	2iv ii/bIII	8g'L 8gg'	8BB-'L 8B-'
.	.	8a'J 8aa'	8GG'J 8G'
.	.	8b-'L 8bb-'	4r
.	.	8g'J 8gg'	.
4T	4V/bIII	4r	8CC'L 8C'
.	.	.	8DD'J 8D'
=	=	=115	=115
2T	2V/bIII	8c'L 8cc'	8EE'L 8E'
.	.	8d'J 8dd'	8CC'J 8C'
.	.	8e'L 8ee'	4r
.	.	8c'J 8cc'	.
4T	4I/bIII	4r	8FF'L 8F'
.	.	.	8GG'J 8G'
=	=	=116	=116
2.T	2.I/bIII	8f'L 8ff'	8AA'L 8A'
.	.	8g'J 8gg'	8FF'J 8F'
.	.	8a'L 8aa'	4r
.	.	8f'J 8ff'	.
.	.	8a'L	4r
.	.	8cc'J	.
=	=	=117	=117
2.T	2.V7/bIII	8b-'L	4C 4G 4B-
.	.	8a'J	.
.	.	8b-'L	4C 4G 4B-
.	.	8g'J	.
.	.	8cc'L	4C 4G 4B-
.	.	8b-'J	.
=	=	=118	=118
2.T	2.I64/bIII	8a'L	4C 4F 4A
.	.	8cc'J	.
.	.	8ff'L	4C 4F 4A
.	.	8cc'J	.
.	.	8ff'L	4C 4F 4A
.	.	8aa'J	.
=	=	=119	=119
2.T	2.V7/bIII	8ee'L	4C 4G 4B-
.	.	8gg'J	.
.	.	8ccc'L	4C 4G 4B-
.	.	8bb-'J	.
.	.	8aa'L	4C 4G 4B-
.	.	8gg'J	.
=	=	=120	=120
2.T	2.I64/bIII	8ff'L	4C 4F 4A
.	.	8aa'J	.
.	.	8ff'L	4C 4F 4A
.	.	8cc'J	.
.	.	8a'L	4C 4F 4A
.	.	8cc'J	.
=	=	=121	=121
2.T	2.V7/bIII	8b-'L	4C 4G 4B-
.	.	8a'J	.
.	.	8b-'L	4C 4G 4B-
.	.	8g'J	.
.	.	8cc'L	4C 4G 4B-
.	.	8b-'J	.
=	=	=122	=122
2.T	2.I64/bIII	8a'L	4C 4F 4A
.	.	8cc'J	.
.	.	8ff'L	4C 4F 4A
.	.	8cc'J	.
.	.	8ff'L	4C 4F 4A
.	.	8aa'J	.
=	=	=123	=123
2.T	2.V7/bIII	8ee'L	4C 4G 4B-
.	.	8gg'J	.
.	.	8ccc'L	4C 4G 4B-
.	.	8bb-'J	.
.	.	8aa'L	4C 4G 4B-
.	.	8gg'J	.
=	=	=124	=124
2.T	2.i/bIII	4ff	16FLL
.	.	.	16A-
.	.	.	16F
.	.	.	16A-JJ
.	.	4r	16FLL
.	.	.	16A-
.	.	.	16F
.	.	.	16A-JJ
.	.	8f	16FLL
.	.	.	16A-
.	.	16r	16F
.	.	16g	16A-JJ
=	=	=125	=125
2.T	2.bVI/bIII	(4a-	16D-LL
.	.	.	16F
.	.	.	16D-
.	.	.	16FJJ
.	.	4f)	16D-LL
.	.	.	16F
.	.	.	16D-
.	.	.	16FJJ
.	.	8b-	16D-LL
.	.	.	16F
.	.	16r	16D-
.	.	16cc	16FJJ
=	=	=126	=126
2.T	2.iv/bIII	(4dd-	16BB-LL
.	.	.	16D-
.	.	.	16BB-
.	.	.	16D-JJ
.	.	4b-)	16BB-LL
.	.	.	16D-
.	.	.	16BB-
.	.	.	16D-JJ
.	.	8b-	16BB-LL
.	.	.	16D-
.	.	16r	16BB-
.	.	16cc-	16D-JJ
=	=	=127	=127
2T	2bII/bIII	(4dd-	16GG-LL
.	.	.	16BB-
.	.	.	16GG-
.	.	.	16BB-JJ
.	.	4b-)	16GG-LL
.	.	.	16BB-
.	.	.	16GG-
.	.	.	16BB-JJ
4T	4V/vi	8b	16FF#LL
.	.	.	16AA#
.	.	16r	16FF#
.	.	16cc#	16AA#JJ
=	=	=128	=128
2.T	2.vi	(4dd	16BBLL
.	.	.	16D
.	.	.	16BB
.	.	.	16DJJ
.	.	4b)	16BBLL
.	.	.	16D
.	.	.	16BB
.	.	.	16DJJ
.	.	8cc#	16BBLL
.	.	.	16D
.	.	16r	16BB
.	.	16dd	16DJJ
=	=	=129	=129
2.T	2.V	(4ee	16AALL
.	.	.	16C#
.	.	.	16AA
.	.	.	16C#JJ
.	.	4cc#)	16AALL
.	.	.	16C#
.	.	.	16AA
.	.	.	16C#JJ
.	.	8ee	16AALL
.	.	.	16C#
.	.	16r	16AA
.	.	16ff#	16C#JJ
=	=	=130	=130
2.T	2.V7	(4gg	16AALL
.	.	.	16E
.	.	.	16AA
.	.	.	16EJJ
.	.	4ee)	16AALL
.	.	.	16E
.	.	.	16AA
.	.	.	16EJJ
.	.	8ee'L 8ccc#'	16AALL
.	.	.	16E
.	.	8ff#'J 8ddd'	16AA
.	.	.	16EJJ
=	=	=131	=131
2.T	2.V7	8gg'L 8eee'	16AALL
.	.	.	16A
.	.	8ff#'J 8ddd'	16AA
.	.	.	16AJJ
.	.	8ee'L 8ccc#'	16AALL
.	.	.	16A
.	.	8ff#'J 8ddd'	16AA
.	.	.	16AJJ
.	.	8gg'L 8eee'	16AALL
.	.	.	16A
.	.	8ff#'J 8ddd'	16AA
.	.	.	16AJJ
=	=	=132	=132
2.T	2.V7	8ee'L 8ccc#'	16AALL
.	.	.	16A
.	.	8ff#'J 8ddd'	16AA
.	.	.	16AJJ
.	.	8gg'L 8eee'	16AALL
.	.	.	16A
.	.	8ff#'J 8ddd'	16AA
.	.	.	16AJJ
.	.	8ee'L 8ccc#'	16AALL
.	.	.	16A
.	.	8ff#'J 8ddd'	16AA
.	.	.	16AJJ
=	=	=133	=133
4.T	4.V7	8ee'L 8ccc#'	16AALL
.	.	.	16A
.	.	8ff#'J 8ddd'	16AA
.	.	.	16AJJ
.	.	8gg'L 8eee'	16AALL
.	.	.	16A
*-	*-	*	*
